X:1151
M:C
L:1/8
Q:1/2=66
K:D
a>f|g2 e>e e2g>e|a2f>f f2A2|Be`gb  f2e2|d2 d>d d2 :|
    d3  c  cBBA |B3 A  AGGF|Be`ge  d2c2|d2 d>d d2 :|

